packages/icons/src/components/Logo/assets/dark/android.svg

<svg width="20" height="20" viewBox="0 0 20 20" fill="none" xmlns="http://www.w3.org/2000/svg">
<path d="M14.493 12.7181C14.0447 12.7181 13.6801 12.3532 13.6801 11.9049C13.6801 11.4566 14.0447 11.092 14.493 11.092C14.9413 11.092 15.306 11.4566 15.306 11.9049C15.306 12.3533 14.9413 12.7181 14.493 12.7181ZM5.50704 12.7181C5.05876 12.7181 4.69411 12.3532 4.69411 11.9049C4.69411 11.4566 5.05868 11.092 5.50704 11.092C5.95531 11.092 6.31996 11.4566 6.31996 11.9049C6.31996 12.3533 5.95539 12.7181 5.50704 12.7181ZM14.7846 7.82094L16.4094 5.00687C16.4541 4.92921 16.4662 4.83698 16.443 4.75041C16.4198 4.66384 16.3632 4.59002 16.2857 4.54513C16.208 4.50042 16.1158 4.48834 16.0292 4.51153C15.9426 4.53473 15.8688 4.59131 15.8239 4.66886L14.1788 7.51849C12.9206 6.9444 11.5077 6.62454 10 6.62454C8.49231 6.62454 7.07939 6.9444 5.82131 7.51849L4.17611 4.66886C4.13121 4.59131 4.05738 4.53473 3.97082 4.51153C3.88426 4.48834 3.79204 4.50042 3.71437 4.54513C3.63676 4.58997 3.58013 4.6638 3.55693 4.75039C3.53373 4.83697 3.54585 4.92922 3.59064 5.00687L5.21545 7.82094C2.42541 9.33839 0.517197 12.163 0.238037 15.5H19.762C19.4826 12.163 17.5744 9.33839 14.7846 7.82087" fill="white"/>
</svg>

<svg xmlns="http://www.w3.org/2000/svg" width="20" height="20" fill="none" viewBox="0 0 20 20">
    <path fill="#fff" d="M14.493 12.718a.814.814 0 0 1 0-1.626.814.814 0 0 1 0 1.626m-8.986 0a.814.814 0 0 1 0-1.626.814.814 0 0 1 0 1.626m9.278-4.897 1.624-2.814a.338.338 0 0 0-.585-.338l-1.645 2.85A10 10 0 0 0 10 6.624c-1.508 0-2.92.32-4.179.893l-1.645-2.85a.338.338 0 0 0-.585.339L5.215 7.82C2.425 9.338.517 12.163.238 15.5h19.524c-.28-3.337-2.188-6.162-4.977-7.68"/>
</svg>
